X: 21442
T: SCOTS WHA HAE WI' WALLACE BLED
T: Old name, "Hey tutti taiti."
O: Scottish air.
Q: "Majestically and slow.
%R: air
B: W. Hamilton "Universal Tune-Book" Vol. 2 Glasgow 1846 p.144 #2
S: http://s3-eu-west-1.amazonaws.com/itma.dl.printmaterial/book_pdfs/hamiltonvol2web.pdf
Z: 2016 John Chambers <jc:trillian.mit.edu>
M: C
L: 1/8
K: Fmix
% - - - - - - - - - - - - - - - - - - - - - - - - -
|:\
F2 F>D (F2 B)z | {A}G2 GF (GABc) |\
{Bc}d2 c>B B>cd>c | B<G G>F F4 :| \
d2 d>c (d2 f)z | c2 c>B c2 (de) |
(f<d)c>B B>c {Bc}d>c | (B<G)G>F F4 |\
d2 d>c (d2 f)z | c2 cB c>deg |\
(f<d)c>B B>c {Bc}Hd>c | (B<G)G>F F4 |]
% - - - - - - - - - - - - - - - - - - - - - - - - -

%%sep 1 1 500
%%sep 1 1 500

